Numix/128x128/categories/applications-chat.svg

<?xml version="1.0" encoding="UTF-8" standalone="no"?>
<svg
   xmlns:dc="http://purl.org/dc/elements/1.1/"
   xmlns:cc="http://creativecommons.org/ns#"
   xmlns:rdf="http://www.w3.org/1999/02/22-rdf-syntax-ns#"
   xmlns:svg="http://www.w3.org/2000/svg"
   xmlns="http://www.w3.org/2000/svg"
   xmlns:sodipodi="http://sodipodi.sourceforge.net/DTD/sodipodi-0.dtd"
   xmlns:inkscape="http://www.inkscape.org/namespaces/inkscape"
   width="128"
   height="128"
   viewBox="0 0 128 128"
   id="svg2"
   version="1.1"
   inkscape:version="0.91 r"
   sodipodi:docname="applications-chat.svg">
  <metadata
     id="metadata14">
    <rdf:RDF>
      <cc:Work
         rdf:about="">
        <dc:format>image/svg+xml</dc:format>
        <dc:type
           rdf:resource="http://purl.org/dc/dcmitype/StillImage" />
      </cc:Work>
    </rdf:RDF>
  </metadata>
  <defs
     id="defs12" />
  <sodipodi:namedview
     pagecolor="#ffffff"
     bordercolor="#666666"
     borderopacity="1"
     objecttolerance="10"
     gridtolerance="10"
     guidetolerance="10"
     inkscape:pageopacity="0"
     inkscape:pageshadow="2"
     inkscape:window-width="1920"
     inkscape:window-height="1056"
     id="namedview10"
     showgrid="false"
     inkscape:zoom="1.84375"
     inkscape:cx="64"
     inkscape:cy="64"
     inkscape:window-x="0"
     inkscape:window-y="24"
     inkscape:window-maximized="1"
     inkscape:current-layer="svg2" />
  <g
     style="fill:#8ccd7c"
     id="g4"
     transform="translate(0.6660155,0.66601763)">
    <path
       d="m 37.121094,40.128906 c -12.851563,0 -23.265625,10.484375 -23.265625,23.398438 0,0.808594 0.01172,1.601562 0.08984,2.382812 0.195313,5.015625 -0.08984,12.253906 5.730469,29.804688 4.945313,14.937496 8.722657,14.624996 8.722657,14.624996 l 5.808593,-2.92968 c 0,0 -2.90625,-5.84766 -2.90625,-11.695316 0,-2.8125 0.664063,-6.273438 1.367188,-9.140625 1.433593,0.273437 2.945312,0.367187 4.453125,0.367187 12.839844,0 23.257812,-10.484375 23.257812,-23.414062 0,-12.914063 -10.417968,-23.398438 -23.257812,-23.398438 z"
       id="path6"
       inkscape:connector-curvature="0" />
    <path
       d="m 89.542969,86.535156 c 12.851561,0 23.269531,-10.480468 23.269531,-23.398437 0,-0.804688 -0.0117,-1.601563 -0.0898,-2.382813 -0.19532,-5.011718 0.0898,-12.25 -5.73047,-29.804687 -4.94922,-14.933594 -8.722659,-14.621094 -8.722659,-14.621094 l -5.808593,2.929687 c 0,0 2.902343,5.847657 2.902343,11.691407 0,2.8125 -0.664062,6.277343 -1.367187,9.140625 -1.429688,-0.273438 -2.941406,-0.363282 -4.453125,-0.363282 -12.835938,0 -23.253907,10.480469 -23.253907,23.410157 0,12.917969 10.417969,23.398437 23.253907,23.398437 z"
       id="path8"
       inkscape:connector-curvature="0" />
  </g>
</svg>

<svg width="128" xmlns="http://www.w3.org/2000/svg" height="128" viewBox="0 0 128 128" xmlns:xlink="http://www.w3.org/1999/xlink">
<g style="fill:#8ccd7c">
<path d="M 37.121094 40.128906 C 24.269531 40.128906 13.855469 50.613281 13.855469 63.527344 C 13.855469 64.335938 13.867188 65.128906 13.945312 65.910156 C 14.140625 70.925781 13.855469 78.164062 19.675781 95.714844 C 24.621094 110.652344 28.398438 110.339844 28.398438 110.339844 L 34.207031 107.410156 C 34.207031 107.410156 31.300781 101.5625 31.300781 95.714844 C 31.300781 92.902344 31.964844 89.441406 32.667969 86.574219 C 34.101562 86.847656 35.613281 86.941406 37.121094 86.941406 C 49.960938 86.941406 60.378906 76.457031 60.378906 63.527344 C 60.378906 50.613281 49.960938 40.128906 37.121094 40.128906 Z "/>
<path d="M 89.542969 86.535156 C 102.394531 86.535156 112.8125 76.054688 112.8125 63.136719 C 112.8125 62.332031 112.800781 61.535156 112.722656 60.753906 C 112.527344 55.742188 112.8125 48.503906 106.992188 30.949219 C 102.042969 16.015625 98.269531 16.328125 98.269531 16.328125 L 92.460938 19.257812 C 92.460938 19.257812 95.363281 25.105469 95.363281 30.949219 C 95.363281 33.761719 94.699219 37.226562 93.996094 40.089844 C 92.566406 39.816406 91.054688 39.726562 89.542969 39.726562 C 76.707031 39.726562 66.289062 50.207031 66.289062 63.136719 C 66.289062 76.054688 76.707031 86.535156 89.542969 86.535156 Z "/>
</g>
</svg>
